X:1
T:Title
%%score ( 1 2 ) ( 3 4 )
L:1/8
Q:1/4=92
M:6/8
K:A
V:1 treble nm="Grand Piano, Soprano"
V:2 treble 
V:3 bass nm="Choir Pad, He�s Calling Thee Home"
V:4 bass 
V:1
 [CE][=C^D][^CE] [Ec]2 [=D=c] | AE[C^E] [DF]3 | F^E[DF] [^DB]2 [DA] | [EG]2 [CA] [EB]3 | %4
w: By~A.~H.~Link * * * *||||
 [CE][=C^D][^CE] [Ec]2 [CA] | [CA][DB][Ec] [Fd]3 | [Ec][DB][CA] [DG]2 [DF] | EF[DG] [CA]3 | %8
w: ||||
 [Ec]3 [CA]3 | [DB]3 [DF]3 | [DG][DG][DG] [DG][DF][DE] | [CA]2 [DB] [Ec]3 | [Ec]3 [EA]3 | %13
w: |||||
 [Fd]3 [DF]2 [DF] | [CE][CE][CE] [DF]2 [DG] | [CA]6- | [CA]3 z3 |] %17
w: ||||
V:2
 x6 | .C3 z3 | .D3 z3 | x6 | x6 | x6 | x6 | .D3 z3 | x6 | x6 | x6 | x6 | x6 | x6 | x6 | x6 | x6 |] %17
V:3
 [A,,A,]2 [A,,A,] [A,,A,]2 [A,,A,] | [A,,A,]2 [A,,A,] [D,A,]3 | [B,,B,]2 [B,,B,] [B,,F,]2 [B,,B,] | %3
 [E,B,]2 [E,A,] [E,G,]3 | [A,,A,]2 [A,,A,] [A,,A,]2 [A,,D,] | [A,,E,]2 [A,,A,] [D,A,]3 | %6
 A,G,[E,A,] [E,B,]2 [E,A,] | G,A,[E,B,] [A,,A,]3 | [A,,A,]3 [A,,E,]3 | [D,F,]3 [D,B,]3 | %10
 [E,B,][E,B,][E,B,] [E,B,][E,B,][G,B,] | A,2 A, A,3 | [A,,A,]3 [A,,E,]3 | [D,F,]3 [D,B,]2 [D,F,] | %14
 [E,A,][E,A,][E,A,] [E,G,]2 E, | [A,,E,]6- | [A,,E,]3 z3 |] %17
V:4
 x6 | x6 | x6 | x6 | x6 | x6 | .E,3 z3 | .E,3 z3 | x6 | x6 | x6 | x6 | x6 | x6 | x6 | x6 | x6 |] %17

